( Made using CamBam - http://www.cambam.co.uk )
( BellowsPress 8/8/2020 11:21:18 )
( Post processor: Default )
( T0 : 3.0 )
G21 G90 G64 G40
G0 Z3.0
( T0 : 3.0 )
T0 M6
( Profile2 )
G17
M3 S1000
G0 X112.0 Y62.5
G0 Z0.5
G1 F300.0 Z-0.4
G3 F800.0 X37.75 Y105.3683 I-49.5 J0.0
G3 Y19.6317 I24.75 J-42.8683
G3 X112.0 Y62.5 I24.75 J42.8683
G1 F300.0 Z-0.8
G3 F800.0 X37.75 Y105.3683 I-49.5 J0.0
G3 Y19.6317 I24.75 J-42.8683
G3 X112.0 Y62.5 I24.75 J42.8683
G1 F300.0 Z-1.2
G3 F800.0 X37.75 Y105.3683 I-49.5 J0.0
G3 Y19.6317 I24.75 J-42.8683
G3 X112.0 Y62.5 I24.75 J42.8683
G1 F300.0 Z-1.6
G3 F800.0 X37.75 Y105.3683 I-49.5 J0.0
G3 Y19.6317 I24.75 J-42.8683
G3 X112.0 Y62.5 I24.75 J42.8683
G1 F300.0 Z-2.0
G3 F800.0 X37.75 Y105.3683 I-49.5 J0.0
G3 Y19.6317 I24.75 J-42.8683
G3 X112.0 Y62.5 I24.75 J42.8683
G1 F300.0 Z-2.4
G3 F800.0 X37.75 Y105.3683 I-49.5 J0.0
G3 Y19.6317 I24.75 J-42.8683
G3 X112.0 Y62.5 I24.75 J42.8683
G1 F300.0 Z-2.8
G3 F800.0 X37.75 Y105.3683 I-49.5 J0.0
G3 Y19.6317 I24.75 J-42.8683
G3 X112.0 Y62.5 I24.75 J42.8683
G1 F300.0 Z-3.2
G3 F800.0 X37.75 Y105.3683 I-49.5 J0.0
G3 Y19.6317 I24.75 J-42.8683
G3 X112.0 Y62.5 I24.75 J42.8683
G1 F300.0 Z-3.6
G3 F800.0 X37.75 Y105.3683 I-49.5 J0.0
G3 Y19.6317 I24.75 J-42.8683
G3 X112.0 Y62.5 I24.75 J42.8683
G1 F300.0 Z-4.0
G3 F800.0 X37.75 Y105.3683 I-49.5 J0.0
G3 Y19.6317 I24.75 J-42.8683
G3 X112.0 Y62.5 I24.75 J42.8683
( Profile3 )
S1000
G0 Z-0.4
G1 F300.0 X113.5
G3 F800.0 X37.0 Y106.6673 I-51.0 J0.0
G3 Y18.3327 I25.5 J-44.1673
G3 X113.5 Y62.5 I25.5 J44.1673
G1 F300.0 Z-0.8
G3 F800.0 X37.0 Y106.6673 I-51.0 J0.0
G3 Y18.3327 I25.5 J-44.1673
G3 X113.5 Y62.5 I25.5 J44.1673
G1 F300.0 Z-1.2
G3 F800.0 X37.0 Y106.6673 I-51.0 J0.0
G3 Y18.3327 I25.5 J-44.1673
G3 X113.5 Y62.5 I25.5 J44.1673
G1 F300.0 Z-1.6
G3 F800.0 X37.0 Y106.6673 I-51.0 J0.0
G3 Y18.3327 I25.5 J-44.1673
G3 X113.5 Y62.5 I25.5 J44.1673
G1 F300.0 Z-2.0
G3 F800.0 X37.0 Y106.6673 I-51.0 J0.0
G3 Y18.3327 I25.5 J-44.1673
G3 X113.5 Y62.5 I25.5 J44.1673
G1 F300.0 Z-2.4
G3 F800.0 X37.0 Y106.6673 I-51.0 J0.0
G3 Y18.3327 I25.5 J-44.1673
G3 X113.5 Y62.5 I25.5 J44.1673
G1 F300.0 Z-2.8
G3 F800.0 X37.0 Y106.6673 I-51.0 J0.0
G3 Y18.3327 I25.5 J-44.1673
G3 X113.5 Y62.5 I25.5 J44.1673
G1 F300.0 Z-3.2
G3 F800.0 X37.0 Y106.6673 I-51.0 J0.0
G3 Y18.3327 I25.5 J-44.1673
G3 X113.5 Y62.5 I25.5 J44.1673
G1 F300.0 Z-3.6
G3 F800.0 X37.0 Y106.6673 I-51.0 J0.0
G3 Y18.3327 I25.5 J-44.1673
G3 X113.5 Y62.5 I25.5 J44.1673
G1 F300.0 Z-4.0
G3 F800.0 X37.0 Y106.6673 I-51.0 J0.0
G3 Y18.3327 I25.5 J-44.1673
G3 X113.5 Y62.5 I25.5 J44.1673
( Profile4 )
S1000
G0 Z-0.4
G1 F300.0 X114.5
G3 F800.0 X36.5 Y107.5333 I-52.0 J0.0
G3 Y17.4667 I26.0 J-45.0333
G3 X114.5 Y62.5 I26.0 J45.0333
G1 F300.0 Z-0.8
G3 F800.0 X36.5 Y107.5333 I-52.0 J0.0
G3 Y17.4667 I26.0 J-45.0333
G3 X114.5 Y62.5 I26.0 J45.0333
G1 F300.0 Z-1.2
G3 F800.0 X36.5 Y107.5333 I-52.0 J0.0
G3 Y17.4667 I26.0 J-45.0333
G3 X114.5 Y62.5 I26.0 J45.0333
G1 F300.0 Z-1.6
G3 F800.0 X36.5 Y107.5333 I-52.0 J0.0
G3 Y17.4667 I26.0 J-45.0333
G3 X114.5 Y62.5 I26.0 J45.0333
G1 F300.0 Z-2.0
G3 F800.0 X36.5 Y107.5333 I-52.0 J0.0
G3 Y17.4667 I26.0 J-45.0333
G3 X114.5 Y62.5 I26.0 J45.0333
G1 F300.0 Z-2.4
G3 F800.0 X36.5 Y107.5333 I-52.0 J0.0
G3 Y17.4667 I26.0 J-45.0333
G3 X114.5 Y62.5 I26.0 J45.0333
G1 F300.0 Z-2.8
G3 F800.0 X36.5 Y107.5333 I-52.0 J0.0
G3 Y17.4667 I26.0 J-45.0333
G3 X114.5 Y62.5 I26.0 J45.0333
G1 F300.0 Z-3.2
G3 F800.0 X36.5 Y107.5333 I-52.0 J0.0
G3 Y17.4667 I26.0 J-45.0333
G3 X114.5 Y62.5 I26.0 J45.0333
G1 F300.0 Z-3.6
G3 F800.0 X36.5 Y107.5333 I-52.0 J0.0
G3 Y17.4667 I26.0 J-45.0333
G3 X114.5 Y62.5 I26.0 J45.0333
G1 F300.0 Z-4.0
G3 F800.0 X36.5 Y107.5333 I-52.0 J0.0
G3 Y17.4667 I26.0 J-45.0333
G3 X114.5 Y62.5 I26.0 J45.0333
( Profile5 )
S1000
G0 Z-0.4
G1 F300.0 X115.5
G3 F800.0 X36.0 Y108.3993 I-53.0 J0.0
G3 Y16.6007 I26.5 J-45.8993
G3 X115.5 Y62.5 I26.5 J45.8993
G1 F300.0 Z-0.8
G3 F800.0 X36.0 Y108.3993 I-53.0 J0.0
G3 Y16.6007 I26.5 J-45.8993
G3 X115.5 Y62.5 I26.5 J45.8993
G1 F300.0 Z-1.2
G3 F800.0 X36.0 Y108.3993 I-53.0 J0.0
G3 Y16.6007 I26.5 J-45.8993
G3 X115.5 Y62.5 I26.5 J45.8993
G1 F300.0 Z-1.6
G3 F800.0 X36.0 Y108.3993 I-53.0 J0.0
G3 Y16.6007 I26.5 J-45.8993
G3 X115.5 Y62.5 I26.5 J45.8993
G1 F300.0 Z-2.0
G3 F800.0 X36.0 Y108.3993 I-53.0 J0.0
G3 Y16.6007 I26.5 J-45.8993
G3 X115.5 Y62.5 I26.5 J45.8993
G1 F300.0 Z-2.4
G3 F800.0 X36.0 Y108.3993 I-53.0 J0.0
G3 Y16.6007 I26.5 J-45.8993
G3 X115.5 Y62.5 I26.5 J45.8993
G1 F300.0 Z-2.8
G3 F800.0 X36.0 Y108.3993 I-53.0 J0.0
G3 Y16.6007 I26.5 J-45.8993
G3 X115.5 Y62.5 I26.5 J45.8993
G1 F300.0 Z-3.2
G3 F800.0 X36.0 Y108.3993 I-53.0 J0.0
G3 Y16.6007 I26.5 J-45.8993
G3 X115.5 Y62.5 I26.5 J45.8993
G1 F300.0 Z-3.6
G3 F800.0 X36.0 Y108.3993 I-53.0 J0.0
G3 Y16.6007 I26.5 J-45.8993
G3 X115.5 Y62.5 I26.5 J45.8993
G1 F300.0 Z-4.0
G3 F800.0 X36.0 Y108.3993 I-53.0 J0.0
G3 Y16.6007 I26.5 J-45.8993
G3 X115.5 Y62.5 I26.5 J45.8993
( Profile1 )
S1000
G0 Z-0.4
G1 F300.0 X116.5
G3 F800.0 X35.5 Y109.2654 I-54.0 J0.0
G3 Y15.7346 I27.0 J-46.7654
G3 X116.5 Y62.5 I27.0 J46.7654
G1 F300.0 Z-0.8
G3 F800.0 X35.5 Y109.2654 I-54.0 J0.0
G3 Y15.7346 I27.0 J-46.7654
G3 X116.5 Y62.5 I27.0 J46.7654
G1 F300.0 Z-1.2
G3 F800.0 X35.5 Y109.2654 I-54.0 J0.0
G3 Y15.7346 I27.0 J-46.7654
G3 X116.5 Y62.5 I27.0 J46.7654
G1 F300.0 Z-1.6
G3 F800.0 X35.5 Y109.2654 I-54.0 J0.0
G3 Y15.7346 I27.0 J-46.7654
G3 X116.5 Y62.5 I27.0 J46.7654
G1 F300.0 Z-2.0
G3 F800.0 X35.5 Y109.2654 I-54.0 J0.0
G3 Y15.7346 I27.0 J-46.7654
G3 X116.5 Y62.5 I27.0 J46.7654
G1 F300.0 Z-2.4
G3 F800.0 X35.5 Y109.2654 I-54.0 J0.0
G3 Y15.7346 I27.0 J-46.7654
G3 X116.5 Y62.5 I27.0 J46.7654
G1 F300.0 Z-2.8
G3 F800.0 X35.5 Y109.2654 I-54.0 J0.0
G3 Y15.7346 I27.0 J-46.7654
G3 X116.5 Y62.5 I27.0 J46.7654
G1 F300.0 Z-3.2
G3 F800.0 X35.5 Y109.2654 I-54.0 J0.0
G3 Y15.7346 I27.0 J-46.7654
G3 X116.5 Y62.5 I27.0 J46.7654
G1 F300.0 Z-3.6
G3 F800.0 X35.5 Y109.2654 I-54.0 J0.0
G3 Y15.7346 I27.0 J-46.7654
G3 X116.5 Y62.5 I27.0 J46.7654
G1 F300.0 Z-4.0
G3 F800.0 X35.5 Y109.2654 I-54.0 J0.0
G3 Y15.7346 I27.0 J-46.7654
G3 X116.5 Y62.5 I27.0 J46.7654
G1 F300.0 Z-4.4
G3 F800.0 X35.5 Y109.2654 I-54.0 J0.0
G3 Y15.7346 I27.0 J-46.7654
G3 X116.5 Y62.5 I27.0 J46.7654
G1 F300.0 Z-4.8
G3 F800.0 X35.5 Y109.2654 I-54.0 J0.0
G3 Y15.7346 I27.0 J-46.7654
G3 X116.5 Y62.5 I27.0 J46.7654
G1 F300.0 Z-5.2
G3 F800.0 X35.5 Y109.2654 I-54.0 J0.0
G3 Y15.7346 I27.0 J-46.7654
G3 X116.5 Y62.5 I27.0 J46.7654
G1 F300.0 Z-5.6
G3 F800.0 X35.5 Y109.2654 I-54.0 J0.0
G3 Y15.7346 I27.0 J-46.7654
G3 X116.5 Y62.5 I27.0 J46.7654
G1 F300.0 Z-6.0
G3 F800.0 X35.5 Y109.2654 I-54.0 J0.0
G3 Y15.7346 I27.0 J-46.7654
G3 X116.5 Y62.5 I27.0 J46.7654
G1 F300.0 Z-6.4
G3 F800.0 X35.5 Y109.2654 I-54.0 J0.0
G3 Y15.7346 I27.0 J-46.7654
G3 X116.5 Y62.5 I27.0 J46.7654
G1 F300.0 Z-6.8
G3 F800.0 X35.5 Y109.2654 I-54.0 J0.0
G3 Y15.7346 I27.0 J-46.7654
G3 X116.5 Y62.5 I27.0 J46.7654
G1 F300.0 Z-7.2
G3 F800.0 X35.5 Y109.2654 I-54.0 J0.0
G3 Y15.7346 I27.0 J-46.7654
G3 X116.5 Y62.5 I27.0 J46.7654
G1 F300.0 Z-7.6
G3 F800.0 X35.5 Y109.2654 I-54.0 J0.0
G3 Y15.7346 I27.0 J-46.7654
G3 X116.5 Y62.5 I27.0 J46.7654
G1 F300.0 Z-8.0
G3 F800.0 X35.5 Y109.2654 I-54.0 J0.0
G3 Y15.7346 I27.0 J-46.7654
G3 X116.5 Y62.5 I27.0 J46.7654
G1 F300.0 Z-8.4
G3 F800.0 X35.5 Y109.2654 I-54.0 J0.0
G3 Y15.7346 I27.0 J-46.7654
G3 X116.5 Y62.5 I27.0 J46.7654
G1 F300.0 Z-8.8
G3 F800.0 X35.5 Y109.2654 I-54.0 J0.0
G3 Y15.7346 I27.0 J-46.7654
G3 X116.5 Y62.5 I27.0 J46.7654
G1 F300.0 Z-9.2
G3 F800.0 X35.5 Y109.2654 I-54.0 J0.0
G3 Y15.7346 I27.0 J-46.7654
G3 X116.5 Y62.5 I27.0 J46.7654
G1 F300.0 Z-9.525
G3 F800.0 X35.5 Y109.2654 I-54.0 J0.0
G3 Y15.7346 I27.0 J-46.7654
G3 X116.5 Y62.5 I27.0 J46.7654
G0 Z3.0
M5
M30
